local/share/icons/dracula-icons-main/24/places/folder-download.svg

<?xml version="1.0" encoding="UTF-8"?>
<svg xmlns="http://www.w3.org/2000/svg" xmlns:xlink="http://www.w3.org/1999/xlink" width="24" height="24" viewBox="0 0 24 24">
<path fill-rule="nonzero" fill="rgb(100%, 100%, 100%)" fill-opacity="1" d="M 12 5 C 11.445312 5 11 5.445312 11 6 L 11 11.585938 L 9.171875 9.757812 C 8.78125 9.367188 8.148438 9.367188 7.757812 9.757812 C 7.367188 10.148438 7.367188 10.78125 7.757812 11.171875 L 11.28125 14.699219 C 11.378906 14.792969 11.492188 14.871094 11.617188 14.925781 C 11.863281 15.023438 12.132812 15.027344 12.375 14.929688 C 12.378906 14.925781 12.378906 14.925781 12.382812 14.925781 C 12.503906 14.875 12.617188 14.800781 12.710938 14.707031 L 16.246094 11.171875 C 16.636719 10.78125 16.636719 10.148438 16.246094 9.757812 C 15.851562 9.367188 15.222656 9.367188 14.832031 9.757812 L 13 11.585938 L 13 6 C 13 5.445312 12.554688 5 12 5 Z M 6 15 L 6 17 C 6 18.109375 6.890625 19 8 19 L 16 19 C 17.109375 19 18 18.109375 18 17 L 18 15 L 16 15 L 16 17 L 8 17 L 8 15 Z M 6 15 "/>
</svg>

<svg width="24" height="24" version="1.1" viewBox="0 0 24 24" xmlns="http://www.w3.org/2000/svg">
 <defs>
  <style id="current-color-scheme" type="text/css">.ColorScheme-Text { color:#FFFFFF; } .ColorScheme-Highlight { color:#5294e2; }</style>
 </defs>
 <path class="ColorScheme-Text" d="m12 5c-0.5535 0-1 0.4465-1 1v5.5859l-1.8281-1.8281c-0.39174-0.39174-1.0223-0.39174-1.4141 0s-0.39174 1.0223 0 1.4141l3.5254 3.5254c0.09451 0.09721 0.2083 0.17423 0.33594 0.22656 0.24227 0.10054 0.51501 0.10271 0.75781 0.0039 0.0021-8.68e-4 0.0037-3e-3 0.0059-0.0039 0.12252-0.05051 0.23406-0.12468 0.32617-0.2168l3.5352-3.5352c0.39174-0.39174 0.39174-1.0223 0-1.4141-0.39174-0.39174-1.0223-0.39174-1.4141 0l-1.8301 1.8281v-5.5859c0-0.5535-0.4465-1-1-1zm-6 10v2c0 1.108 0.892 2 2 2h8c1.108 0 2-0.892 2-2v-2h-2v2h-8v-2z" fill="currentColor"/>
</svg>
